svg/fluentui-system-icons/ic_fluent_database_person_20_filled.svg

<svg width="20" height="20" viewBox="0 0 20 20" fill="none" xmlns="http://www.w3.org/2000/svg">
<path d="M16 5C16 6.65685 13.3137 8 10 8C6.68629 8 4 6.65685 4 5C4 3.34315 6.68629 2 10 2C13.3137 2 16 3.34315 16 5ZM14.6899 8.01575C14.9684 7.87648 15.2429 7.71471 15.5 7.53054C15.5 8.3421 14.8042 8.96977 14.0884 9.35219C13.1432 9.85716 12.5 10.8535 12.5 12C12.5 12.7733 12.7926 13.4782 13.273 14.0102C11.9987 14.1248 11 15.1958 11 16.5C11 16.9855 11.1063 17.474 11.3296 17.9261C10.9019 17.9745 10.4569 18 10 18C6.68629 18 4 16.6569 4 15V7.12029C4.38273 7.48234 4.8407 7.78102 5.31015 8.01575C6.56205 8.6417 8.22156 9 10 9C11.7784 9 13.4379 8.6417 14.6899 8.01575ZM17.5 12C17.5 13.1046 16.6046 14 15.5 14C14.3954 14 13.5 13.1046 13.5 12C13.5 10.8954 14.3954 10 15.5 10C16.6046 10 17.5 10.8954 17.5 12ZM19 16.5C19 17.7452 18 19 15.5 19C13 19 12 17.7499 12 16.5C12 15.6716 12.6716 15 13.5 15H17.5C18.3284 15 19 15.6716 19 16.5Z" fill="#212121"/>
</svg>

<svg xmlns="http://www.w3.org/2000/svg" width="20" height="20"><path d="M16 5c0 1.657-2.686 3-6 3S4 6.657 4 5s2.686-3 6-3 6 1.343 6 3Zm-1.31 3.016a6.13 6.13 0 0 0 .81-.485c0 .811-.696 1.439-1.412 1.821a3 3 0 0 0-.815 4.658A2.5 2.5 0 0 0 11 16.5c0 .485.106.974.33 1.426A11.71 11.71 0 0 1 10 18c-3.314 0-6-1.343-6-3V7.12c.383.362.84.661 1.31.896C6.562 8.642 8.222 9 10 9c1.778 0 3.438-.358 4.69-.984ZM17.5 12a2 2 0 1 1-4 0 2 2 0 0 1 4 0Zm1.5 4.5c0 1.245-1 2.5-3.5 2.5S12 17.75 12 16.5a1.5 1.5 0 0 1 1.5-1.5h4a1.5 1.5 0 0 1 1.5 1.5Z"/></svg>
